icons/arrow-expand-3-filled.svg

<svg viewBox="0 0 24 24"><path fill="currentColor" fill-rule="evenodd" d="M18 2.4a3.6 3.6 0 0 1 3.6 3.6v12a3.6 3.6 0 0 1-3.6 3.6h-12a3.6 3.6 0 0 1-3.6-3.6v-12a3.6 3.6 0 0 1 3.6-3.6zm-4 1.6a1 1 0 1 0 0 2h2.6l-10.6 10.6v-2.7a1 1 0 1 0-2 0v5.1a1 1 0 0 0 1 1h5a1 1 0 1 0 0-2h-2.6l10.6-10.6v2.7a1 1 0 1 0 2 0v-5.1a1 1 0 0 0-1-1z" clip-rule="evenodd"/></svg>

<svg viewBox="0 0 24 24"><path fill="currentColor" fill-rule="evenodd" d="M18 2.4A3.6 3.6 0 0 1 21.6 6v12a3.6 3.6 0 0 1-3.6 3.6H6A3.6 3.6 0 0 1 2.4 18V6A3.6 3.6 0 0 1 6 2.4zM14 4a1 1 0 1 0 0 2h2.6L6 16.6v-2.7a1 1 0 1 0-2 0V19a1 1 0 0 0 1 1h5a1 1 0 1 0 0-2H7.5L18 7.4v2.7a1 1 0 1 0 2 0V5a1 1 0 0 0-1-1z" clip-rule="evenodd"/></svg>
